src/icons/logo.svg

<svg width="163.000000" height="60.494873" viewBox="0 0 163 60.4949" fill="none" xmlns="http://www.w3.org/2000/svg" xmlns:xlink="http://www.w3.org/1999/xlink">
	<defs>
		<clipPath id="clip3_8985">
			<rect id="logo" width="163.000000" height="60.494846" fill="white" fill-opacity="0"/>
		</clipPath>
	</defs>
	<rect id="logo" width="163.000000" height="60.494846" fill="#FFFFFF" fill-opacity="0"/>
	<g clip-path="url(#clip3_8985)">
		<path id="Vector" d="M80.0342 9.2464L80.0342 23.9127L71.6924 23.9127L71.6924 7.32251C71.6924 4.73956 69.8936 2.76062 67.4424 2.76062C64.9912 2.76062 62.3721 4.68451 61.1699 7.54279L61.1699 23.9127L52.8301 23.9127L52.8301 1.64325L61.1699 0.214966L61.1699 5.29028C63.0791 2.21344 66.6787 0.179443 70.7109 0.179443C76.1084 0.179443 80.0322 4.08051 80.0322 9.24817L80.0342 9.2464Z" fill="#141414" fill-opacity="1.000000" fill-rule="nonzero"/>
		<path id="Vector" d="M39.8057 0.362427L29.2959 23.9286L25.958 23.9482L19.6201 10.3087L13.4766 24.0388L10.8447 24.0583L0 0.461914L7.89844 0.40509L15.3271 16.8531L18.9258 8.81116L15.1123 0.351746L23.0117 0.294922L30.4414 16.791L37.7354 0.371338L39.8057 0.360657L39.8057 0.362427Z" fill="#141414" fill-opacity="1.000000" fill-rule="nonzero"/>
		<path id="Vector" d="M42.5986 37.3231L42.7305 30.0023L49.5381 28.2383L49.5205 29.1745L42.5986 37.3231Z" fill="#141414" fill-opacity="1.000000" fill-rule="nonzero"/>
		<path id="Vector" d="M49.8008 22.8663L42.3486 24.1418L42.1689 0.474304L49.6279 0.41571L49.8008 22.8663Z" fill="#141414" fill-opacity="1.000000" fill-rule="nonzero"/>
		<path id="Vector" d="M71.8115 36.6711L80.0342 35.4098L80.0342 60.3705L71.8115 60.3705L71.8115 36.6711Z" fill="#141414" fill-opacity="1.000000" fill-rule="nonzero"/>
		<path id="Vector" d="M16.0635 48.2285C16.0146 41.2915 21.6816 36.0013 29.2871 35.9462C36.8428 35.8912 42.6357 41.0997 42.6846 48.0349C42.7344 54.9719 37.0176 60.2621 29.4619 60.3172C21.8564 60.3723 16.1133 55.1655 16.0635 48.2285ZM35.0283 48.09C34.9775 41.0588 32.7549 36.8575 29.2939 36.8824C25.7842 36.9073 23.668 41.1406 23.7188 48.1717C23.7695 55.2028 25.9443 59.4041 29.4541 59.3792C32.915 59.3544 35.0791 55.1193 35.0283 48.09Z" fill="#141414" fill-opacity="1.000000" fill-rule="nonzero"/>
		<path id="Vector" d="M45.8867 48.2303C45.8379 41.2933 51.5527 36.0031 59.2568 35.9462C64.668 35.9071 68.8799 38.6428 68.9062 42.345L67.8828 42.3521C67.8633 39.54 65.0684 37.4509 61.4609 37.4775C56.4385 37.5148 53.4922 41.5189 53.54 48.1752C53.5879 54.8298 56.6895 58.7912 61.8086 58.7539C64.4883 58.7344 67.0156 57.4038 68.0742 55.3804L69.1475 55.3734C67.9004 58.2885 64.0615 60.2852 59.4805 60.319C51.6797 60.3758 45.9385 55.1211 45.8887 48.2321L45.8867 48.2303Z" fill="#141414" fill-opacity="1.000000" fill-rule="nonzero"/>
		<path id="Vector" d="M111.446 48.0527C111.397 41.1157 117.112 35.8254 124.816 35.7686C130.228 35.7295 134.439 38.4652 134.466 42.1674L133.442 42.1744C133.423 39.3624 130.628 37.2733 127.021 37.2999C121.998 37.3372 119.052 41.3413 119.1 47.9976C119.147 54.6522 122.249 58.6136 127.368 58.5763C130.048 58.5568 132.575 57.2262 133.634 55.2028L134.707 55.1957C133.46 58.1108 129.621 60.1076 125.04 60.1414C117.239 60.1982 111.498 54.9435 111.448 48.0544L111.446 48.0527Z" fill="#141414" fill-opacity="1.000000" fill-rule="nonzero"/>
		<path id="Vector" d="M146.201 48.36L144.988 49.3992L145.064 60.1929L137.605 60.2462L137.369 27.144L144.821 25.8703L144.979 47.9923L158.696 36.5502L160.404 36.5378L151.437 44.0078L163.002 60.1911L154.762 60.2515L146.203 48.3582L146.201 48.36Z" fill="#141414" fill-opacity="1.000000" fill-rule="nonzero"/>
		<path id="Vector" d="M80.582 0.143921C77.623 4.79285 77.8174 10.076 81.0488 14.5384C83.2041 17.5139 86.4355 19.5071 89.0029 22.1362C91.5703 24.7654 93.5195 28.638 92.1641 32.0523C90.7852 35.527 86.7461 36.9411 83.7217 39.1421C80.4268 41.5403 78.1133 45.2424 77.4043 49.2518C76.6963 53.2612 77.2305 56.9864 79.5029 60.3652L110.923 60.3652C110.923 60.3652 116.812 50.4047 109.716 42.3983C102.619 34.3919 98.8076 34.2604 99.0723 29.011C99.335 23.7617 103.014 22.0545 105.116 20.0862C107.219 18.1179 117.469 14.6841 111.423 0.143921L80.582 0.143921Z" fill="#7C0021" fill-opacity="1.000000" fill-rule="nonzero"/>
		<path id="Vector" d="M100.748 23.9358C99.624 24.2058 98.4199 24.3568 97.1709 24.3657C88.9805 24.4243 83.1406 19.2175 83.0908 12.2344C83.04 5.34357 88.707 0.0533447 95.9229 0C102.993 -0.0515137 108.098 4.92609 108.146 11.5824L90.7402 11.7086C90.8926 19.301 93.8936 23.076 99.1582 23.0369C100.104 23.0298 100.996 22.9694 101.853 22.7047L100.748 23.934L100.748 23.9358ZM90.7334 10.7723L101.118 10.6978C100.928 4.60632 99.0488 0.916687 96.0254 0.939758C92.8096 0.96283 90.8379 5.05402 90.7334 10.7741L90.7334 10.7723Z" fill="#FFFFFF" fill-opacity="1.000000" fill-rule="nonzero"/>
		<path id="Vector" d="M82.3066 48.4062C82.2578 41.4692 87.9268 36.179 95.5322 36.1239C103.086 36.0688 108.879 41.2773 108.928 48.2126C108.978 55.1495 103.261 60.4398 95.7061 60.4949C88.1006 60.5499 82.3584 55.3432 82.3066 48.4062ZM101.273 48.2676C101.222 41.2365 98.998 37.0352 95.5391 37.0601C92.0283 37.085 89.9121 41.3182 89.9639 48.3494C90.0146 55.3805 92.1895 59.5818 95.6992 59.5569C99.1602 59.532 101.324 55.297 101.273 48.2676Z" fill="#FFFFFF" fill-opacity="1.000000" fill-rule="nonzero"/>
	</g>
</svg>

<svg xmlns="http://www.w3.org/2000/svg" width="163" height="60.495" fill="none">
  <defs>
    <clipPath id="a">
      <path fill="#fff" fill-opacity="0" d="M0 0h163v60.495H0z"/>
    </clipPath>
  </defs>
  <path fill="none" d="M0 0h163v60.495H0z"/>
  <g clip-path="url(#a)">
    <path fill="#141414" d="M80.034 9.246v14.667h-8.342V7.323c0-2.583-1.8-4.562-4.25-4.562-2.452 0-5.07 1.924-6.272 4.782v16.37h-8.34V1.643L61.17.215V5.29C63.078 2.213 66.678.18 70.71.18c5.398 0 9.322 3.9 9.322 9.068l.002-.002ZM39.805.362 29.295 23.93l-3.337.02-6.338-13.64-6.143 13.73-2.633.02L0 .461 7.898.405l7.43 16.448 3.598-8.042-3.814-8.46 7.9-.056 7.43 16.496L37.734.371l2.07-.01v.001ZM42.598 37.323l.133-7.32 6.807-1.765-.018.936-6.922 8.15ZM49.8 22.866l-7.452 1.276-.18-23.668 7.46-.058.172 22.45ZM71.811 36.671l8.223-1.261v24.96H71.81V36.671ZM16.064 48.228c-.05-6.937 5.618-12.227 13.223-12.282 7.556-.055 13.349 5.154 13.398 12.089.05 6.937-5.667 12.227-13.224 12.282-7.605.055-13.348-5.151-13.397-12.089Zm18.964-.138c-.05-7.031-2.273-11.233-5.734-11.208-3.51.025-5.627 4.259-5.575 11.29.05 7.03 2.225 11.232 5.735 11.207 3.461-.025 5.625-4.26 5.574-11.289ZM45.887 48.23c-.05-6.937 5.665-12.227 13.37-12.284 5.411-.039 9.622 2.697 9.649 6.399l-1.024.007c-.02-2.812-2.814-4.901-6.421-4.874-5.022.037-7.969 4.04-7.921 10.697.047 6.655 3.149 10.616 8.268 10.579 2.68-.02 5.207-1.35 6.266-3.374l1.073-.007c-1.247 2.916-5.085 4.912-9.667 4.946-7.801.057-13.542-5.198-13.591-12.087l-.002-.002ZM111.446 48.053c-.049-6.937 5.666-12.228 13.37-12.284 5.411-.04 9.623 2.696 9.649 6.398l-1.024.007c-.019-2.812-2.814-4.9-6.421-4.874-5.022.037-7.968 4.041-7.921 10.698.048 6.654 3.149 10.616 8.268 10.578 2.681-.02 5.207-1.35 6.267-3.373l1.073-.007c-1.248 2.915-5.086 4.912-9.667 4.945-7.802.057-13.543-5.197-13.592-12.087l-.002-.001ZM146.201 48.36l-1.212 1.04.076 10.793-7.46.053-.236-33.102 7.453-1.274.158 22.122 13.717-11.442 1.707-.012-8.967 7.47 11.565 16.183-8.24.06-8.559-11.893-.002.002Z"/>
    <path fill="#7C0021" d="M80.582.144c-2.959 4.649-2.765 9.932.467 14.394 2.155 2.976 5.387 4.97 7.954 7.598 2.568 2.63 4.516 6.502 3.162 9.916-1.38 3.475-5.42 4.89-8.443 7.09-3.295 2.398-5.609 6.1-6.317 10.11-.709 4.01-.175 7.734 2.098 11.113h31.42s5.889-9.96-1.207-17.967c-7.097-8.006-10.908-8.138-10.644-13.387.263-5.25 3.942-6.956 6.044-8.925 2.103-1.968 12.353-5.402 6.307-19.942H80.582Z"/>
    <path fill="#FFF" d="M100.748 23.936c-1.124.27-2.328.42-3.577.43-8.19.058-14.03-5.148-14.08-12.132C83.04 5.344 88.707.054 95.923 0c7.07-.052 12.175 4.926 12.223 11.582l-17.405.127c.151 7.592 3.152 11.367 8.417 11.328.945-.007 1.839-.068 2.695-.332l-1.105 1.229v.002ZM90.734 10.772l10.384-.074c-.19-6.092-2.069-9.781-5.093-9.758-3.215.023-5.187 4.114-5.291 9.834v-.002ZM82.307 48.406c-.05-6.937 5.62-12.227 13.225-12.282 7.554-.055 13.347 5.153 13.396 12.089.049 6.937-5.667 12.227-13.221 12.282-7.606.055-13.349-5.152-13.4-12.089Zm18.966-.138c-.051-7.032-2.275-11.233-5.734-11.208-3.51.025-5.627 4.258-5.575 11.29.05 7.03 2.225 11.232 5.736 11.207 3.46-.025 5.624-4.26 5.573-11.29Z"/>
  </g>
</svg>
